img/team/2-2.svg

<svg fill="none" height="110" viewBox="0 0 110 110" width="110" xmlns="http://www.w3.org/2000/svg" xmlns:xlink="http://www.w3.org/1999/xlink"><filter id="a" color-interpolation-filters="sRGB" filterUnits="userSpaceOnUse" height="110" width="110" x="0" y="-.000977"><feFlood flood-opacity="0" result="BackgroundImageFix"/><feColorMatrix in="SourceAlpha" type="matrix" values="0 0 0 0 0 0 0 0 0 0 0 0 0 0 0 0 0 0 127 0"/><feOffset dy="5"/><feGaussianBlur stdDeviation="10"/><feColorMatrix type="matrix" values="0 0 0 0 0.890196 0 0 0 0 0.721569 0 0 0 0 0.45098 0 0 0 0.5 0"/><feBlend in2="BackgroundImageFix" mode="normal" result="effect1_dropShadow"/><feBlend in="SourceGraphic" in2="effect1_dropShadow" mode="normal" result="shape"/></filter><clipPath id="b"><path d="m33 27.999h44v44h-44z"/></clipPath><g filter="url(#a)"><path d="m20 14.999h70v70h-70z" fill="#e3b873"/></g><g clip-path="url(#b)" fill="#fff"><path d="m57.3697 27.999c-8.9906 0-16.305 7.3144-16.305 16.305v2.6738l-4.5399 7.8136c-.0571.0983-.0873.2101-.0873.3239v2.7138c0 .3561.2887.6445.6445.6445h3.9827l.0003 4.3385c0 1.9255 1.5664 3.4919 3.4919 3.4919h1.3112c.3559 0 .6442-.2887.6442-.6445 0-.3562-.2883-.6446-.6445-.6446h-1.3109c-1.2149 0-2.2028-.9883-2.2028-2.2028v-4.3385h1.8466c.3559 0 .6446-.2884.6446-.6445v-4.2711c0-.3558-.2887-.6445-.6446-.6445h-1.4236c-.3562 0-.6446.2887-.6446.6445 0 .3562.2884.6446.6446.6446h.7791v2.9819h-5.8296v-1.5582h2.2028c.3558 0 .6445-.2887.6445-.6446 0-.3562-.2887-.6445-.6445-.6445h-1.6496l3.9783-6.8475c.0607-.0987.0957-.2145.0957-.338v-2.8477c0-8.2796 6.736-15.0159 15.0159-15.0159 8.2802 0 15.0162 6.7363 15.0162 15.0159v5.6947c0 6.1932-3.7037 11.6546-9.4457 13.948h-1.6553c-.3562 0-.6446.2884-.6446.6446 0 .3561.2884.6445.6446.6445h1.1353v5.4742h-11.8802v-4.406h1.4908c.3562 0 .6445-.2884.6445-.6445 0-.3559-.2883-.6446-.6445-.6446h-2.1337-.0017-1.4451c-.3558 0-.6445.2884-.6445.6446 0 .3558.2887.6445.6445.6445h.8006v5.0505c0 .3562.2887.6445.6445.6445h13.1693c.3558 0 .6445-.2883.6445-.6445v-6.3295c2.8467-1.2011 5.2791-3.1737 7.055-5.7263 1.904-2.7375 2.9108-5.9531 2.9108-9.3v-5.6947c0-8.9906-7.3145-16.305-16.3053-16.305z"/><path d="m48.885 43.5923c0 1.7396.523 3.411 1.513 4.834.8818 1.2676 2.0749 2.2596 3.4697 2.89v1.3304h-.0671c-.3562 0-.6446.2883-.6446.6445 0 .3558.2884.6445.6446.6445h.0671v1.7581c0 .3558.2887.6445.6445.6445h.0675v1.4911c0 .3559.2887.6446.6445.6446h4.2711c.3558 0 .6445-.2887.6445-.6446v-1.4911h.0675c.3558 0 .6445-.2887.6445-.6445v-1.7581h.0671c.3562 0 .6446-.2887.6446-.6445 0-.3562-.2884-.6445-.6446-.6445h-.0671v-1.3304c1.3948-.6304 2.5879-1.6224 3.4697-2.89.9897-1.423 1.513-3.0944 1.513-4.834 0-4.6731-3.8017-8.4749-8.4749-8.4749-4.6729 0-8.4746 3.8018-8.4746 8.4749zm6.9838 2.0683h.5122l1.2347 1.235c.1209.1208.285.189.4559.189s.335-.0682.4559-.189l.3232-.3233v3.6718h-2.9819zm2.9819 11.5243h-2.9819v-.8466h2.9819zm.712-2.1357h-4.4059v-1.1135h4.4059zm-4.4059-2.4025v-1.1135h4.4059v1.1135zm2.2031-16.2402c3.9622 0 7.1855 3.2237 7.1855 7.1858 0 2.9223-1.7234 5.5034-4.4056 6.627v-5.2033s0 0 0-.0003v-.7117c0-.3558-.2887-.6445-.6445-.6445-.3562 0-.6446.2887-.6446.6445v.4451l-.7791.7792-.9678-.9682c-.1209-.1208-.285-.1886-.4559-.1886h-.7791v-.0675c0-.3558-.2884-.6445-.6446-.6445-.3558 0-.6445.2887-.6445.6445v5.9153c-2.6822-1.1236-4.4056-3.7047-4.4056-6.627 0-3.9621 3.2233-7.1858 7.1858-7.1858z"/><path d="m58.0041 33.6263v-2.1353c0-.3562-.2884-.6446-.6445-.6446-.3559 0-.6446.2884-.6446.6446v2.1353c0 .3562.2887.6445.6446.6445.3561 0 .6445-.2883.6445-.6445z"/><path d="m49.1955 34.6056c-.2517-.2515-.6599-.2515-.9117 0-.2514.2517-.2514.6599 0 .9117l1.5103 1.51c.1259.1258.2907.189.4558.189.1649 0 .3297-.0632.4556-.189.2518-.2518.2518-.6597 0-.9114z"/><path d="m47.3049 43.0369h-2.1356c-.3559 0-.6446.2887-.6446.6445 0 .3562.2887.6445.6446.6445h2.1356c.3559 0 .6446-.2883.6446-.6445 0-.3558-.2887-.6445-.6446-.6445z"/><path d="m49.7944 50.3354-1.5103 1.5103c-.2518.2518-.2518.6597 0 .9114.1259.1259.2907.1887.4555.1887.1652 0 .33-.0628.4559-.1887l1.5103-1.5099c.2518-.2518.2518-.66 0-.9118-.2518-.2517-.66-.2514-.9114 0z"/><path d="m64.014 50.3353c-.2517.2518-.2517.6596 0 .9114l1.51 1.5103c.1259.1259.291.1887.4558.1887.1649 0 .33-.0628.4559-.1887.2518-.2518.2518-.66 0-.9117l-1.5103-1.51c-.2517-.2518-.6596-.2518-.9114 0z"/><path d="m69.5503 44.3259c.3562 0 .6445-.2887.6445-.6445 0-.3562-.2883-.6445-.6445-.6445h-2.1357c-.3562 0-.6445.2883-.6445.6445 0 .3558.2883.6445.6445.6445z"/><path d="m65.524 34.6053-1.5103 1.5103c-.2514.2518-.2514.6597.0003.9114.1256.1259.2907.1887.4556.1887.1648 0 .33-.0628.4558-.1887l1.51-1.5103c.2518-.2517.2518-.6596 0-.9114-.2514-.2517-.6596-.2517-.9114 0z"/></g></svg>

<svg width="110" height="110" viewBox="0 0 110 110" fill="none" xmlns="http://www.w3.org/2000/svg">
<g filter="url(#filter0_d)">
<rect x="20" y="14.999" width="70" height="70" fill="#E3B873"/>
</g>
<g clip-path="url(#clip0)">
<path d="M57.3697 27.999C48.3791 27.999 41.0647 35.3134 41.0647 44.304V46.9778L36.5248 54.7914C36.4677 54.8897 36.4375 55.0015 36.4375 55.1153V57.8291C36.4375 58.1852 36.7262 58.4736 37.082 58.4736H41.0647L41.065 62.8121C41.065 64.7376 42.6314 66.304 44.5569 66.304H45.8681C46.224 66.304 46.5123 66.0153 46.5123 65.6595C46.5123 65.3033 46.224 65.0149 45.8678 65.0149H44.5569C43.342 65.0149 42.3541 64.0266 42.3541 62.8121V58.4736H44.2007C44.5566 58.4736 44.8453 58.1852 44.8453 57.8291V53.558C44.8453 53.2022 44.5566 52.9135 44.2007 52.9135H42.7771C42.4209 52.9135 42.1325 53.2022 42.1325 53.558C42.1325 53.9142 42.4209 54.2026 42.7771 54.2026H43.5562V57.1845H37.7266V55.6263H39.9294C40.2852 55.6263 40.5739 55.3376 40.5739 54.9817C40.5739 54.6255 40.2852 54.3372 39.9294 54.3372H38.2798L42.2581 47.4897C42.3188 47.391 42.3538 47.2752 42.3538 47.1517V44.304C42.3538 36.0244 49.0898 29.2881 57.3697 29.2881C65.6499 29.2881 72.3859 36.0244 72.3859 44.304V49.9987C72.3859 56.1919 68.6822 61.6533 62.9402 63.9467H61.2849C60.9287 63.9467 60.6403 64.2351 60.6403 64.5913C60.6403 64.9474 60.9287 65.2358 61.2849 65.2358H62.4202V70.71H50.54V66.304H52.0308C52.387 66.304 52.6753 66.0156 52.6753 65.6595C52.6753 65.3036 52.387 65.0149 52.0308 65.0149H49.8971H49.8954H48.4503C48.0945 65.0149 47.8058 65.3033 47.8058 65.6595C47.8058 66.0153 48.0945 66.304 48.4503 66.304H49.2509V71.3545C49.2509 71.7107 49.5396 71.999 49.8954 71.999H63.0647C63.4205 71.999 63.7092 71.7107 63.7092 71.3545V65.025C66.5559 63.8239 68.9883 61.8513 70.7642 59.2987C72.6682 56.5612 73.675 53.3456 73.675 49.9987V44.304C73.675 35.3134 66.3605 27.999 57.3697 27.999Z" fill="white"/>
<path d="M48.885 43.5923C48.885 45.3319 49.408 47.0033 50.398 48.4263C51.2798 49.6939 52.4729 50.6859 53.8677 51.3163V52.6467H53.8006C53.4444 52.6467 53.156 52.935 53.156 53.2912C53.156 53.647 53.4444 53.9357 53.8006 53.9357H53.8677V55.6938C53.8677 56.0496 54.1564 56.3383 54.5122 56.3383H54.5797V57.8294C54.5797 58.1853 54.8684 58.474 55.2242 58.474H59.4953C59.8511 58.474 60.1398 58.1853 60.1398 57.8294V56.3383H60.2073C60.5631 56.3383 60.8518 56.0496 60.8518 55.6938V53.9357H60.9189C61.2751 53.9357 61.5635 53.647 61.5635 53.2912C61.5635 52.935 61.2751 52.6467 60.9189 52.6467H60.8518V51.3163C62.2466 50.6859 63.4397 49.6939 64.3215 48.4263C65.3112 47.0033 65.8345 45.3319 65.8345 43.5923C65.8345 38.9192 62.0328 35.1174 57.3596 35.1174C52.6867 35.1174 48.885 38.9192 48.885 43.5923ZM55.8688 45.6606H56.381L57.6157 46.8956C57.7366 47.0164 57.9007 47.0846 58.0716 47.0846C58.2425 47.0846 58.4066 47.0164 58.5275 46.8956L58.8507 46.5723V50.2441H55.8688V45.6606ZM58.8507 57.1849H55.8688V56.3383H58.8507V57.1849ZM59.5627 55.0492H55.1568V53.9357H59.5627V55.0492ZM55.1568 52.6467V51.5332H59.5627V52.6467H55.1568ZM57.3599 36.4065C61.3221 36.4065 64.5454 39.6302 64.5454 43.5923C64.5454 46.5146 62.822 49.0957 60.1398 50.2193V45.016C60.1398 45.016 60.1398 45.016 60.1398 45.0157V44.304C60.1398 43.9482 59.8511 43.6595 59.4953 43.6595C59.1391 43.6595 58.8507 43.9482 58.8507 44.304V44.7491L58.0716 45.5283L57.1038 44.5601C56.9829 44.4393 56.8188 44.3715 56.6479 44.3715H55.8688V44.304C55.8688 43.9482 55.5804 43.6595 55.2242 43.6595C54.8684 43.6595 54.5797 43.9482 54.5797 44.304V50.2193C51.8975 49.0957 50.1741 46.5146 50.1741 43.5923C50.1741 39.6302 53.3974 36.4065 57.3599 36.4065Z" fill="white"/>
<path d="M58.0041 33.6263V31.491C58.0041 31.1348 57.7157 30.8464 57.3596 30.8464C57.0037 30.8464 56.715 31.1348 56.715 31.491V33.6263C56.715 33.9825 57.0037 34.2708 57.3596 34.2708C57.7157 34.2708 58.0041 33.9825 58.0041 33.6263Z" fill="white"/>
<path d="M49.1955 34.6056C48.9438 34.3541 48.5356 34.3541 48.2838 34.6056C48.0324 34.8573 48.0324 35.2655 48.2838 35.5173L49.7941 37.0273C49.92 37.1531 50.0848 37.2163 50.2499 37.2163C50.4148 37.2163 50.5796 37.1531 50.7055 37.0273C50.9573 36.7755 50.9573 36.3676 50.7055 36.1159L49.1955 34.6056Z" fill="white"/>
<path d="M47.3049 43.0369H45.1693C44.8134 43.0369 44.5247 43.3256 44.5247 43.6814C44.5247 44.0376 44.8134 44.3259 45.1693 44.3259H47.3049C47.6608 44.3259 47.9495 44.0376 47.9495 43.6814C47.9495 43.3256 47.6608 43.0369 47.3049 43.0369Z" fill="white"/>
<path d="M49.7944 50.3354L48.2841 51.8457C48.0323 52.0975 48.0323 52.5054 48.2841 52.7571C48.41 52.883 48.5748 52.9458 48.7396 52.9458C48.9048 52.9458 49.0696 52.883 49.1955 52.7571L50.7058 51.2472C50.9576 50.9954 50.9576 50.5872 50.7058 50.3354C50.454 50.0837 50.0458 50.084 49.7944 50.3354Z" fill="white"/>
<path d="M64.014 50.3353C63.7623 50.5871 63.7623 50.9949 64.014 51.2467L65.524 52.757C65.6499 52.8829 65.815 52.9457 65.9798 52.9457C66.1447 52.9457 66.3098 52.8829 66.4357 52.757C66.6875 52.5052 66.6875 52.097 66.4357 51.8453L64.9254 50.3353C64.6737 50.0835 64.2658 50.0835 64.014 50.3353Z" fill="white"/>
<path d="M69.5503 44.3259C69.9065 44.3259 70.1948 44.0372 70.1948 43.6814C70.1948 43.3252 69.9065 43.0369 69.5503 43.0369H67.4146C67.0584 43.0369 66.7701 43.3252 66.7701 43.6814C66.7701 44.0372 67.0584 44.3259 67.4146 44.3259H69.5503Z" fill="white"/>
<path d="M65.524 34.6053L64.0137 36.1156C63.7623 36.3674 63.7623 36.7753 64.014 37.027C64.1396 37.1529 64.3047 37.2157 64.4696 37.2157C64.6344 37.2157 64.7996 37.1529 64.9254 37.027L66.4354 35.5167C66.6872 35.265 66.6872 34.8571 66.4354 34.6053C66.184 34.3536 65.7758 34.3536 65.524 34.6053Z" fill="white"/>
</g>
<defs>
<filter id="filter0_d" x="0" y="-0.000976562" width="110" height="110" filterUnits="userSpaceOnUse" color-interpolation-filters="sRGB">
<feFlood flood-opacity="0" result="BackgroundImageFix"/>
<feColorMatrix in="SourceAlpha" type="matrix" values="0 0 0 0 0 0 0 0 0 0 0 0 0 0 0 0 0 0 127 0"/>
<feOffset dy="5"/>
<feGaussianBlur stdDeviation="10"/>
<feColorMatrix type="matrix" values="0 0 0 0 0.890196 0 0 0 0 0.721569 0 0 0 0 0.45098 0 0 0 0.5 0"/>
<feBlend mode="normal" in2="BackgroundImageFix" result="effect1_dropShadow"/>
<feBlend mode="normal" in="SourceGraphic" in2="effect1_dropShadow" result="shape"/>
</filter>
<clipPath id="clip0">
<rect x="33" y="27.999" width="44" height="44" fill="white"/>
</clipPath>
</defs>
</svg>
